src/assets/img/providers/pushgaming-g.svg

<svg width="122" height="28" viewBox="0 0 122 28" fill="none" xmlns="http://www.w3.org/2000/svg">
<path fill-rule="evenodd" clip-rule="evenodd" d="M0.641602 0.138347V0.000976562L28.4871 0.0165865V0.153957C28.4871 1.08432 28.448 2.00532 28.3778 2.92476C28.3075 3.8442 28.2014 4.7574 28.05 5.69714C27.8986 6.63687 27.7159 7.55475 27.488 8.46951C27.2601 9.38426 27.0041 10.146 26.7075 11.0265L26.6497 11.1982H8.72768L8.66368 11.0421C8.30621 10.2038 7.994 9.3468 7.72707 8.47419L7.67556 8.29779H24.4393C24.6688 7.42674 24.8639 6.53696 25.02 5.64406C25.1683 4.79018 25.2823 3.91601 25.3619 3.0434H3.75896C3.83857 3.91445 3.94628 4.78862 4.10238 5.64406C4.26473 6.57131 4.46766 7.49699 4.70806 8.39458C4.9547 9.32494 5.24973 10.2506 5.57911 11.142C5.83199 11.8351 6.11141 12.5313 6.42362 13.2119C6.52508 13.4492 6.62811 13.6708 6.73582 13.8909C7.17915 14.8213 7.68024 15.747 8.22191 16.6414C8.51695 17.1269 8.83539 17.6218 9.16789 18.1072C9.46917 18.5443 9.78137 18.9767 10.0936 19.3904C10.3355 19.712 10.5697 20.007 10.8038 20.2911C11.1566 20.7251 11.5297 21.159 11.9168 21.5836C12.087 21.771 12.2603 21.9552 12.4351 22.1394C12.5007 22.208 12.5662 22.2767 12.6334 22.3423C13.2515 22.9807 13.8962 23.5927 14.555 24.164C15.2059 23.5942 15.8491 22.987 16.4735 22.3454C16.5421 22.2767 16.6077 22.208 16.6733 22.1394C16.8856 21.9161 17.0698 21.7194 17.2352 21.5352C17.6021 21.1231 17.9611 20.7063 18.303 20.2864C18.5574 19.9758 18.7963 19.6729 19.0148 19.3826C19.352 18.9408 19.672 18.4881 19.9842 18.0354C20.1014 17.8669 20.2161 17.7223 20.3281 17.581C20.4786 17.3912 20.6242 17.2075 20.7647 16.9802H11.8763L11.6437 16.643C11.0973 15.8859 10.5978 15.096 10.1451 14.2796L10.0358 14.0767H25.7022L25.6195 14.2687C25.3075 15.0072 24.96 15.6394 24.5976 16.2989C24.5647 16.3587 24.5318 16.4187 24.4987 16.4791C24.4222 16.618 24.3441 16.7601 24.2661 16.9053C23.9806 17.432 23.681 17.8826 23.3717 18.3478C23.2447 18.5388 23.116 18.7323 22.986 18.9346C22.8549 19.1391 22.7222 19.3404 22.5864 19.5418C21.9932 20.4238 21.3563 21.2855 20.6913 22.105L20.5212 22.3126C20.426 22.4281 20.3307 22.5405 20.2355 22.6514L20.2121 22.6795C19.7703 23.2008 19.313 23.7113 18.8446 24.1983C18.5668 24.4887 18.2718 24.7884 17.9674 25.0866C17.7925 25.2567 17.6177 25.4237 17.4413 25.5876C17.2352 25.7781 17.0261 25.9701 16.8169 26.159C16.1503 26.7506 15.4572 27.3235 14.7548 27.8574L14.6439 27.9432L14.5643 28.001L14.4832 27.9448L14.3676 27.8574C13.6636 27.3204 12.969 26.7475 12.3071 26.1574C12.1135 25.9841 11.9231 25.8124 11.7295 25.6313C11.536 25.4503 11.3471 25.2692 11.1582 25.0866C10.8616 24.7962 10.565 24.4965 10.2793 24.1983C9.82196 23.7191 9.37707 23.2258 8.95715 22.7325C8.84762 22.6043 8.74074 22.476 8.63284 22.3465L8.60592 22.3142L8.43421 22.1034C7.76453 21.2792 7.12607 20.4175 6.53913 19.5418C6.4206 19.3656 6.30364 19.1862 6.18667 19.0069L6.18634 19.0064C5.71023 18.2696 5.26378 17.5172 4.85948 16.771C4.36776 15.8703 3.91194 14.9337 3.50607 13.9971L3.50057 13.9846C3.48495 13.9491 3.46835 13.9114 3.453 13.8738L3.41397 13.7817C3.05806 12.9434 2.73025 12.0848 2.44302 11.2263C2.14018 10.3271 1.87013 9.39051 1.64066 8.45389C1.41899 7.55475 1.22543 6.60253 1.07869 5.68153C0.931954 4.76052 0.824243 3.81767 0.750875 2.90916C0.677507 2.00064 0.641602 1.07496 0.641602 0.138347ZM80.864 14.3579V13.6711H76.3995V15.2196H79.0954C78.9486 15.7269 78.627 16.1656 78.1868 16.459C77.6826 16.7759 77.0957 16.9336 76.5009 16.9102C75.5846 16.9102 74.8494 16.637 74.2937 16.0906C74.0205 15.819 73.8051 15.4943 73.6615 15.1368C73.5178 14.7794 73.4507 14.3969 73.4616 14.0114C73.4492 13.6242 73.5163 13.2371 73.6568 12.8749C73.7973 12.5128 74.0096 12.1834 74.2812 11.9055C74.5544 11.6292 74.8806 11.4138 75.2412 11.2702C75.6002 11.1282 75.9874 11.061 76.3745 11.0735C76.8725 11.0673 77.3642 11.1844 77.8044 11.4169C78.2025 11.6168 78.535 11.9243 78.7644 12.3067L80.2661 11.4419C79.8743 10.8066 79.3217 10.2852 78.663 9.93397C77.9652 9.55465 77.1815 9.35952 76.387 9.36889C75.7735 9.35952 75.1647 9.47191 74.5949 9.70138C74.0252 9.93085 73.5085 10.2727 73.0729 10.7051C72.6374 11.1375 72.294 11.6527 72.0614 12.2209C71.8288 12.7891 71.7133 13.3979 71.7195 14.0114C71.7086 14.6202 71.8226 15.2274 72.0552 15.7909C72.2878 16.356 72.6343 16.8649 73.0729 17.2895C73.9768 18.184 75.1148 18.6304 76.4884 18.6304C77.7779 18.632 78.83 18.2386 79.6433 17.4487C80.4566 16.6588 80.864 15.6286 80.864 14.3579ZM53.9522 18.0371C54.5545 18.4319 55.2958 18.6286 56.1774 18.6287C57.1339 18.6286 57.9142 18.3866 58.5166 17.9044C58.8085 17.6718 59.0427 17.3721 59.1988 17.0318C59.3549 16.6915 59.4282 16.32 59.4142 15.9453C59.4157 15.7065 59.3845 15.4692 59.319 15.2398C59.2643 15.0478 59.1878 14.862 59.0895 14.6872C58.9865 14.517 58.8553 14.3671 58.7008 14.2407C58.5572 14.1174 58.4073 14.0019 58.2497 13.8973C58.0717 13.7896 57.8844 13.699 57.6908 13.6241L57.6756 13.618L57.6755 13.618L57.6755 13.618C57.4408 13.5241 57.2554 13.4499 57.1179 13.4087C57.0434 13.3863 56.9509 13.3561 56.8399 13.3198L56.8399 13.3198C56.7416 13.2876 56.6289 13.2507 56.5013 13.2104C55.841 13.0075 55.393 12.8186 55.1588 12.6453C55.048 12.5689 54.959 12.4674 54.8981 12.3488C54.8373 12.2301 54.8076 12.0974 54.8092 11.9647C54.806 11.8414 54.8326 11.7181 54.8872 11.6057C54.9419 11.4933 55.0215 11.3965 55.1214 11.3216C55.3711 11.1436 55.674 11.0578 55.9799 11.075C56.7589 11.075 57.3271 11.4558 57.6846 12.2192L59.1597 11.3669C58.8787 10.7674 58.4354 10.2585 57.8813 9.89795C57.313 9.54047 56.6512 9.35627 55.9799 9.37032C55.2275 9.35159 54.4923 9.60604 53.9131 10.0884C53.6322 10.3225 53.4074 10.6176 53.2591 10.9516C53.1108 11.2857 53.0405 11.6494 53.0546 12.0147C53.0468 12.3831 53.1201 12.7484 53.27 13.084C53.4105 13.3853 53.6259 13.646 53.8944 13.8411C54.152 14.0284 54.4283 14.1892 54.7202 14.3172C55.0511 14.4546 55.3883 14.5732 55.7317 14.6731C56.4514 14.8776 56.9524 15.0665 57.2319 15.2398C57.3536 15.3084 57.4551 15.4083 57.5285 15.527C57.6018 15.6456 57.644 15.7814 57.6518 15.9204C57.6596 16.0609 57.6315 16.1998 57.5722 16.3262C57.5129 16.4527 57.4223 16.5619 57.3099 16.6447C57.0805 16.8226 56.7214 16.9116 56.2297 16.9116C55.2119 16.9116 54.5297 16.4589 54.1816 15.552L52.6815 16.4293C52.9141 17.0911 53.3621 17.6578 53.9522 18.0371ZM40.6478 9.54741C41.0489 9.53805 41.4486 9.60829 41.8201 9.75815C42.1932 9.90645 42.5319 10.1297 42.816 10.4122C43.378 10.9757 43.6933 11.7406 43.6933 12.5352C43.6933 13.3298 43.378 14.0947 42.816 14.6597C42.5335 14.9423 42.1947 15.1655 41.8232 15.3138C41.4517 15.4621 41.0536 15.5339 40.654 15.5246H39.093V18.4499H37.3275V9.5521L40.6478 9.54741ZM40.6478 13.8839C40.821 13.8886 40.9943 13.8558 41.1535 13.7903C41.3143 13.7231 41.4579 13.6232 41.5766 13.4968C41.8138 13.2314 41.945 12.888 41.945 12.5336C41.945 12.1793 41.8138 11.8343 41.5766 11.5689C41.4564 11.444 41.3128 11.3457 41.152 11.2801C40.9927 11.2146 40.8195 11.1834 40.6478 11.188H39.0867V13.8839H40.6478ZM48.1511 18.628C47.1583 18.628 46.345 18.3486 45.7096 17.7898C45.0743 17.2309 44.7574 16.4816 44.7559 15.5435V9.5476H46.498V15.3983C46.487 15.5997 46.5167 15.8026 46.5854 15.993C46.6541 16.1835 46.7602 16.3568 46.8976 16.5066C47.1661 16.7782 47.5829 16.9125 48.1464 16.9125C48.7099 16.9125 49.1314 16.7782 49.3952 16.5066C49.5326 16.3583 49.6387 16.1835 49.7074 15.993C49.7761 15.8026 49.8058 15.6012 49.7948 15.3983V9.5476H51.5572V15.5435C51.5572 16.4801 51.2388 17.2309 50.6019 17.796C49.965 18.3611 49.1486 18.639 48.1511 18.628ZM65.551 9.5476H67.2931V18.4454H65.551V14.763H62.2448V18.4517H60.4886V9.55384H62.2448V13.0896H65.551V9.5476ZM87.6439 18.4505L87.0788 16.8489H83.4213L82.8875 18.4505H80.9924L84.1144 9.55266H86.2889L89.4297 18.4505H87.6439ZM83.9927 15.2082H86.4981L85.2134 11.5695L83.9927 15.2082ZM99.0013 18.4449V9.54714H97.1843L94.643 13.751L92.0954 9.54557H90.2893V18.4434H92.0454V12.691L94.5431 16.8074L94.7491 16.7996L97.2592 12.6692V18.4449H99.0013ZM100.654 9.5476H102.41V18.4454H100.654V9.5476ZM110.967 9.5476H109.213V14.9706L105.395 9.5476H104.061V18.4454H105.81V13.0021L109.626 18.4454H110.967V9.5476ZM121.359 13.6711V14.3579C121.359 15.6286 120.951 16.6588 120.137 17.4487C119.322 18.2386 118.271 18.632 116.983 18.6304C115.61 18.6304 114.472 18.184 113.568 17.2895C113.129 16.8649 112.781 16.356 112.548 15.7909C112.316 15.2274 112.2 14.6202 112.213 14.0114C112.207 13.3979 112.324 12.7891 112.556 12.2209C112.789 11.6527 113.134 11.1375 113.568 10.7051C114.003 10.2727 114.52 9.93085 115.09 9.70138C115.66 9.47191 116.268 9.35952 116.882 9.36889C117.676 9.35952 118.46 9.55465 119.158 9.93397C119.817 10.2852 120.369 10.8066 120.761 11.4419L119.259 12.3067C119.03 11.9258 118.697 11.6168 118.299 11.4169C117.859 11.1844 117.366 11.0657 116.868 11.0735C116.481 11.061 116.095 11.1282 115.736 11.2718C115.377 11.4154 115.051 11.6308 114.778 11.9071C114.506 12.185 114.294 12.5143 114.153 12.8765C114.013 13.2387 113.946 13.6242 113.958 14.0129C113.946 14.3985 114.014 14.7809 114.156 15.14C114.3 15.4974 114.515 15.8221 114.79 16.0922C115.346 16.6385 116.081 16.9117 116.997 16.9117C117.591 16.9351 118.177 16.7775 118.68 16.4606C119.12 16.1671 119.443 15.7285 119.59 15.2211H116.894V13.6711H121.359Z" fill="#00AB55"/>
</svg>

<svg xmlns="http://www.w3.org/2000/svg" width="122" height="28" fill="none"><path fill="#00AB55" fill-rule="evenodd" d="M.642.138V.001l27.845.016v.137c0 .93-.039 1.851-.11 2.77-.07.92-.176 1.833-.327 2.773-.151.94-.334 1.858-.562 2.773-.228.914-.484 1.676-.78 2.556l-.058.172H8.728l-.064-.156a25.742 25.742 0 0 1-.937-2.568l-.051-.176h16.763c.23-.871.425-1.761.581-2.654.148-.854.262-1.728.342-2.6H3.759a32.025 32.025 0 0 0 .95 5.351c.246.93.54 1.856.87 2.747.253.693.532 1.39.845 2.07a31.456 31.456 0 0 0 3.67 6.178c.242.322.476.617.71.901a30.192 30.192 0 0 0 1.631 1.848c.066.069.131.138.198.203.619.639 1.263 1.25 1.922 1.822.65-.57 1.294-1.177 1.919-1.819.068-.068.134-.137.2-.206a29.322 29.322 0 0 0 1.629-1.853c.254-.31.493-.613.712-.903.337-.442.657-.895.97-1.348.116-.168.231-.313.343-.454.15-.19.296-.373.437-.6h-8.889l-.232-.338a23.562 23.562 0 0 1-1.499-2.363l-.11-.203h15.667l-.083.192c-.311.738-.659 1.37-1.021 2.03a124.254 124.254 0 0 0-.332.606c-.285.527-.585.978-.894 1.443-.127.19-.256.384-.386.587a35.713 35.713 0 0 1-2.295 3.17l-.17.208c-.095.115-.19.228-.286.338l-.023.029a32.6 32.6 0 0 1-1.367 1.518 31.847 31.847 0 0 1-1.403 1.39c-.207.19-.416.382-.625.571a35.362 35.362 0 0 1-2.062 1.698l-.111.086-.08.058-.08-.056-.116-.088a35.12 35.12 0 0 1-5.41-5.124c-.11-.129-.217-.257-.325-.387l-.027-.032-.172-.21a34.856 34.856 0 0 1-1.895-2.562c-.118-.176-.235-.356-.352-.535a33.858 33.858 0 0 1-1.328-2.236c-.491-.9-.947-1.837-1.353-2.774l-.005-.012-.048-.111-.039-.092a34.345 34.345 0 0 1-1.773-5.328 34.307 34.307 0 0 1-.89-5.545A34.454 34.454 0 0 1 .64.14Zm80.222 14.22v-.687h-4.465v1.549h2.696a2.236 2.236 0 0 1-.908 1.239 2.95 2.95 0 0 1-1.686.451c-.916 0-1.652-.273-2.207-.82a2.801 2.801 0 0 1-.832-2.08 2.89 2.89 0 0 1 .82-2.104 2.81 2.81 0 0 1 2.093-.833c.498-.006.99.111 1.43.344.397.2.73.507.96.89l1.501-.865a4.215 4.215 0 0 0-1.603-1.508 4.652 4.652 0 0 0-2.276-.565 4.606 4.606 0 0 0-3.314 1.336 4.58 4.58 0 0 0-1.353 3.306 4.46 4.46 0 0 0 1.353 3.279c.904.894 2.042 1.34 3.415 1.34 1.29.002 2.342-.391 3.155-1.181.814-.79 1.221-1.82 1.221-3.091Zm-26.912 3.68c.602.394 1.344.59 2.225.59.957 0 1.737-.241 2.34-.724a2.392 2.392 0 0 0 .897-1.959 2.51 2.51 0 0 0-.325-1.258 1.74 1.74 0 0 0-.388-.446 4.59 4.59 0 0 0-.451-.344 3.559 3.559 0 0 0-.56-.273l-.014-.006c-.235-.094-.42-.168-.558-.21a13.247 13.247 0 0 1-.278-.088c-.098-.032-.211-.07-.339-.11-.66-.203-1.108-.391-1.342-.565a.807.807 0 0 1-.35-.68.776.776 0 0 1 .312-.643c.25-.178.553-.264.859-.247.779 0 1.347.38 1.705 1.144l1.475-.852a3.551 3.551 0 0 0-1.279-1.47 3.439 3.439 0 0 0-1.901-.527 3.11 3.11 0 0 0-2.067.718 2.386 2.386 0 0 0-.858 1.927c-.008.368.065.733.215 1.069.14.301.356.562.624.757.258.187.534.348.826.476.331.138.668.256 1.012.356.72.205 1.22.393 1.5.567a.83.83 0 0 1 .42.68.844.844 0 0 1-.342.725c-.23.178-.589.267-1.08.267-1.018 0-1.7-.453-2.048-1.36l-1.5.877c.232.662.68 1.229 1.27 1.608Zm-13.304-8.49a2.969 2.969 0 0 1 2.168.865 3.009 3.009 0 0 1 0 4.247 2.955 2.955 0 0 1-2.162.865h-1.561v2.925h-1.766V9.552l3.32-.005Zm0 4.336a1.23 1.23 0 0 0 .929-.387 1.447 1.447 0 0 0 0-1.928 1.237 1.237 0 0 0-.93-.381h-1.56v2.696h1.56Zm7.503 4.744c-.993 0-1.806-.28-2.441-.838-.636-.56-.953-1.308-.954-2.246V9.547h1.742v5.85a1.512 1.512 0 0 0 .4 1.109c.268.271.685.405 1.248.405.564 0 .985-.134 1.25-.405a1.509 1.509 0 0 0 .399-1.109v-5.85h1.762v5.995c0 .937-.318 1.688-.955 2.253-.637.565-1.453.843-2.45.832Zm17.4-9.08h1.742v8.897h-1.742v-3.682h-3.306v3.689h-1.756V9.554h1.756v3.536h3.306V9.548Zm22.093 8.903-.565-1.602H83.42l-.534 1.602h-1.895l3.122-8.898h2.175l3.14 8.898h-1.785Zm-3.651-3.243h2.505l-1.285-3.639-1.22 3.64ZM99 18.445V9.547h-1.817l-2.541 4.204-2.548-4.205H90.29v8.897h1.756v-5.752l2.498 4.116.206-.007 2.51-4.13v5.775h1.742Zm1.653-8.897h1.756v8.897h-1.756V9.548Zm10.313 0h-1.754v5.423l-3.818-5.423h-1.334v8.897h1.749v-5.443l3.816 5.443h1.341V9.548Zm10.392 4.123v.687c0 1.27-.408 2.3-1.222 3.09-.815.79-1.866 1.184-3.154 1.182-1.373 0-2.511-.446-3.415-1.34a4.44 4.44 0 0 1-1.355-3.279 4.61 4.61 0 0 1 2.877-4.31 4.605 4.605 0 0 1 1.792-.332 4.654 4.654 0 0 1 2.276.565 4.214 4.214 0 0 1 1.603 1.508l-1.502.865a2.353 2.353 0 0 0-.96-.89 2.967 2.967 0 0 0-1.431-.344 2.806 2.806 0 0 0-2.715 1.803c-.14.363-.207.748-.195 1.137a2.8 2.8 0 0 0 .832 2.08c.556.546 1.291.819 2.207.819a2.939 2.939 0 0 0 1.683-.451 2.24 2.24 0 0 0 .91-1.24h-2.696v-1.55h4.465Z" clip-rule="evenodd"/></svg>
